polaris-icons/icons/newicons/MaximizeMajor.svg

<svg width="20" height="20" viewBox="0 0 20 20" fill="none" xmlns="http://www.w3.org/2000/svg">
<path d="M13.25 3C12.8358 3 12.5 3.33579 12.5 3.75C12.5 4.16421 12.8358 4.5 13.25 4.5L14.4393 4.5L10.7197 8.21967C10.4268 8.51256 10.4268 8.98744 10.7197 9.28033C11.0126 9.57322 11.4874 9.57322 11.7803 9.28033L15.5 5.56066L15.5 6.75C15.5 7.16421 15.8358 7.5 16.25 7.5C16.6642 7.5 17 7.16421 17 6.75L17 3.75C17 3.33579 16.6642 3 16.25 3H13.25Z" fill="black"/>
<path d="M6.75 17C7.16421 17 7.5 16.6642 7.5 16.25C7.5 15.8358 7.16421 15.5 6.75 15.5H5.56066L9.28033 11.7803C9.57322 11.4874 9.57322 11.0126 9.28033 10.7197C8.98744 10.4268 8.51256 10.4268 8.21967 10.7197L4.5 14.4393V13.25C4.5 12.8358 4.16421 12.5 3.75 12.5C3.33579 12.5 3 12.8358 3 13.25V16.25C3 16.6642 3.33579 17 3.75 17H6.75Z" fill="black"/>
</svg>

<svg viewBox="0 0 20 20" fill="none" xmlns="http://www.w3.org/2000/svg"><path d="M13.25 3a.75.75 0 0 0 0 1.5h1.19l-3.72 3.72a.75.75 0 0 0 1.06 1.06l3.72-3.72v1.19a.75.75 0 0 0 1.5 0v-3a.75.75 0 0 0-.75-.75h-3Z" fill="#5C5F62"/><path d="M6.75 17a.75.75 0 0 0 0-1.5h-1.19l3.72-3.72a.75.75 0 1 0-1.06-1.06l-3.72 3.72v-1.19a.75.75 0 0 0-1.5 0v3c0 .414.336.75.75.75h3Z" fill="#5C5F62"/></svg>
